public/Images/Group.svg

<svg width="42" height="43" viewBox="0 0 42 43" fill="none" xmlns="http://www.w3.org/2000/svg">
<path d="M35.8371 27.6984C33.6002 25.4177 30.9377 23.7293 28.0328 22.7073C31.144 20.5224 33.1881 16.8658 33.1881 12.7311C33.1881 6.05579 27.8617 0.625 21.3148 0.625C14.768 0.625 9.4416 6.05579 9.4416 12.7311C9.4416 16.8658 11.4856 20.5224 14.597 22.7073C11.6921 23.7293 9.02957 25.4177 6.79267 27.6984C2.91365 31.6535 0.777344 36.9121 0.777344 42.5054H3.98633C3.98633 32.7631 11.7599 24.8371 21.3148 24.8371C30.8698 24.8371 38.6434 32.7631 38.6434 42.5054H41.8523C41.8523 36.9121 39.716 31.6535 35.8371 27.6984ZM21.3148 21.5652C16.5374 21.5652 12.6506 17.6023 12.6506 12.7311C12.6506 7.85984 16.5374 3.89691 21.3148 3.89691C26.0923 3.89691 29.9791 7.85984 29.9791 12.7311C29.9791 17.6023 26.0923 21.5652 21.3148 21.5652Z" fill="#D7DDE0"/>
</svg>

<svg xmlns="http://www.w3.org/2000/svg" width="42" height="43" fill="none"><path d="M35.837 27.698c-2.237-2.28-4.9-3.97-7.804-4.99a12.17 12.17 0 0 0 5.155-9.976c0-6.675-5.326-12.106-11.873-12.106S9.442 6.056 9.442 12.73a12.17 12.17 0 0 0 5.155 9.976c-2.905 1.022-5.567 2.7-7.804 4.99C2.914 31.654.777 36.912.777 42.505h3.21c0-9.742 7.774-17.668 17.328-17.668s17.33 7.926 17.33 17.668h3.21c0-5.593-2.136-10.852-6.015-14.807zm-14.522-6.133c-4.777 0-8.664-3.963-8.664-8.834s3.887-8.834 8.664-8.834S29.98 7.86 29.98 12.73s-3.887 8.834-8.664 8.834z" fill="#d7dde0"/></svg>
